X:31
T:Vals efter Byss-Calle
R:vals
A:Uppland
B:57 l{\aa}tar efter Byss-Calle nr 18
Z:id:hn-vals-30
M:3/4
L:1/8
K:Am
E2 | A2 c2 e2 | {e}a4 eg | f2{gf} e2 d2 | c3 d cB |
A2 c2 e2 | g4 fe | d2 B2 c2{dc} | A4 :|
B2 |: cG ce ge | ec cc c2 | BG Bd fd | BG GG G2 |
AG Ac ec | c2 Ac BA | GA Bc dB |1 c4 g2 :|2 c4 ||

